images/instagram.svg

<svg fill="none" height="24" viewBox="0 0 24 24" width="24" xmlns="http://www.w3.org/2000/svg"><path d="m12 0c-3.26 0-3.667.015-4.947.072-1.278.06-2.148.261-2.913.558-.789.306-1.459.717-2.126 1.384s-1.079 1.336-1.384 2.126c-.297.765-.499 1.635-.558 2.913-.06 1.28-.072 1.687-.072 4.947s.015 3.667.072 4.947c.06 1.277.261 2.148.558 2.913.301292.8009.7736 1.5264 1.384 2.126.59928.6108 1.3249 1.0832 2.126 1.384.766.296 1.636.499 2.913.558 1.28.06 1.687.072 4.947.072s3.667-.015 4.947-.072c1.277-.06 2.148-.262 2.913-.558.8007-.3017 1.5261-.7739 2.126-1.384.611-.5991 1.0834-1.3248 1.384-2.126.296-.765.499-1.636.558-2.913.06-1.28.072-1.687.072-4.947s-.015-3.667-.072-4.947c-.06-1.277-.262-2.149-.558-2.913-.3014-.80078-.7737-1.52627-1.384-2.126-.5988-.61136-1.3246-1.08381-2.126-1.384-.765-.297-1.636-.499-2.913-.558-1.28-.06-1.687-.072-4.947-.072zm0 2.16c3.203 0 3.585.016 4.85.071 1.17.055 1.805.249 2.227.415.562.217.96.477 1.382.896.419.42.679.819.896 1.381.164.422.36 1.057.413 2.227.057 1.266.07 1.646.07 4.85s-.015 3.585-.074 4.85c-.061 1.17-.256 1.805-.421 2.227-.1952.5208-.5021.9925-.899 1.382-.3879.3973-.8593.7034-1.38.896-.42.164-1.065.36-2.235.413-1.274.057-1.649.07-4.859.07-3.211 0-3.586-.015-4.859-.074-1.171-.061-1.816-.256-2.236-.421-.5211-.1928-.99232-.5-1.379-.899-.40142-.3853-.70929-.8573-.9-1.38-.165-.42-.359-1.065-.42-2.235-.045-1.26-.061-1.649-.061-4.844 0-3.196.016-3.586.061-4.861.061-1.17.255-1.814.42-2.234.21-.57.479-.96.9-1.381.419-.419.81-.689 1.379-.898.42-.166 1.051-.361 2.221-.421 1.275-.045 1.65-.06 4.859-.06zm0 3.678c-.8092 0-1.6105.15939-2.3581.46905-.7476.30967-1.4269.76356-1.99909 1.33576-.5722.57219-1.02609 1.25149-1.33576 1.99909s-.46905 1.5489-.46905 2.3581.15938 1.6105.46905 2.3581.76356 1.4269 1.33576 1.9991c.57219.5722 1.25149 1.0261 1.99909 1.3357.7476.3097 1.5489.4691 2.3581.4691 1.6343 0 3.2016-.6492 4.3572-1.8048s1.8048-2.7229 1.8048-4.3572-.6492-3.20159-1.8048-4.35719-2.7229-1.80481-4.3572-1.80481zm0 10.162c-2.21 0-4-1.79-4-4s1.79-4 4-4 4 1.79 4 4-1.79 4-4 4zm7.846-10.405c-.0139.37262-.1717.72536-.4402.98407s-.6269.40326-.9998.40326-.7313-.14455-.9998-.40326-.4263-.61145-.4402-.98407c0-.38191.1517-.74818.4218-1.01823.27-.27006.6363-.42177 1.0182-.42177s.7482.15171 1.0182.42177c.2701.27005.4218.63632.4218 1.01823z" fill="#061323"/></svg>

<svg width="24" height="24" viewBox="0 0 24 24" fill="none" xmlns="http://www.w3.org/2000/svg">
<path d="M12 0C8.74 0 8.333 0.015 7.053 0.072C5.775 0.132 4.905 0.333 4.14 0.63C3.351 0.936 2.681 1.347 2.014 2.014C1.347 2.681 0.935 3.35 0.63 4.14C0.333 4.905 0.131 5.775 0.072 7.053C0.012 8.333 0 8.74 0 12C0 15.26 0.015 15.667 0.072 16.947C0.132 18.224 0.333 19.095 0.63 19.86C0.931292 20.6609 1.4036 21.3864 2.014 21.986C2.61328 22.5968 3.3389 23.0692 4.14 23.37C4.906 23.666 5.776 23.869 7.053 23.928C8.333 23.988 8.74 24 12 24C15.26 24 15.667 23.985 16.947 23.928C18.224 23.868 19.095 23.666 19.86 23.37C20.6607 23.0683 21.3861 22.5961 21.986 21.986C22.597 21.3869 23.0694 20.6612 23.37 19.86C23.666 19.095 23.869 18.224 23.928 16.947C23.988 15.667 24 15.26 24 12C24 8.74 23.985 8.333 23.928 7.053C23.868 5.776 23.666 4.904 23.37 4.14C23.0686 3.33922 22.5963 2.61373 21.986 2.014C21.3872 1.40264 20.6614 0.93019 19.86 0.63C19.095 0.333 18.224 0.131 16.947 0.072C15.667 0.012 15.26 0 12 0ZM12 2.16C15.203 2.16 15.585 2.176 16.85 2.231C18.02 2.286 18.655 2.48 19.077 2.646C19.639 2.863 20.037 3.123 20.459 3.542C20.878 3.962 21.138 4.361 21.355 4.923C21.519 5.345 21.715 5.98 21.768 7.15C21.825 8.416 21.838 8.796 21.838 12C21.838 15.204 21.823 15.585 21.764 16.85C21.703 18.02 21.508 18.655 21.343 19.077C21.1478 19.5978 20.8409 20.0695 20.444 20.459C20.0561 20.8563 19.5847 21.1624 19.064 21.355C18.644 21.519 17.999 21.715 16.829 21.768C15.555 21.825 15.18 21.838 11.97 21.838C8.759 21.838 8.384 21.823 7.111 21.764C5.94 21.703 5.295 21.508 4.875 21.343C4.3539 21.1502 3.88268 20.843 3.496 20.444C3.09458 20.0587 2.78671 19.5867 2.596 19.064C2.431 18.644 2.237 17.999 2.176 16.829C2.131 15.569 2.115 15.18 2.115 11.985C2.115 8.789 2.131 8.399 2.176 7.124C2.237 5.954 2.431 5.31 2.596 4.89C2.806 4.32 3.075 3.93 3.496 3.509C3.915 3.09 4.306 2.82 4.875 2.611C5.295 2.445 5.926 2.25 7.096 2.19C8.371 2.145 8.746 2.13 11.955 2.13L12 2.16ZM12 5.838C11.1908 5.838 10.3895 5.99739 9.6419 6.30705C8.8943 6.61672 8.215 7.07061 7.64281 7.64281C7.07061 8.215 6.61672 8.8943 6.30705 9.6419C5.99738 10.3895 5.838 11.1908 5.838 12C5.838 12.8092 5.99738 13.6105 6.30705 14.3581C6.61672 15.1057 7.07061 15.785 7.64281 16.3572C8.215 16.9294 8.8943 17.3833 9.6419 17.6929C10.3895 18.0026 11.1908 18.162 12 18.162C13.6343 18.162 15.2016 17.5128 16.3572 16.3572C17.5128 15.2016 18.162 13.6343 18.162 12C18.162 10.3657 17.5128 8.79841 16.3572 7.64281C15.2016 6.48721 13.6343 5.838 12 5.838ZM12 16C9.79 16 8 14.21 8 12C8 9.79 9.79 8 12 8C14.21 8 16 9.79 16 12C16 14.21 14.21 16 12 16ZM19.846 5.595C19.8321 5.96762 19.6743 6.32036 19.4058 6.57907C19.1373 6.83778 18.7789 6.98233 18.406 6.98233C18.0331 6.98233 17.6747 6.83778 17.4062 6.57907C17.1377 6.32036 16.9799 5.96762 16.966 5.595C16.966 5.21309 17.1177 4.84682 17.3878 4.57677C17.6578 4.30671 18.0241 4.155 18.406 4.155C18.7879 4.155 19.1542 4.30671 19.4242 4.57677C19.6943 4.84682 19.846 5.21309 19.846 5.595Z" fill="#061323"/>
</svg>
